X:1
T:Wo Ist Jesus, Mein Verlangen
T:Geistliches Volkslied, 1850
T:Wo Ist Jesus, Mein Verlangen
T:Public Domain
C:Geistliches Volkslied, 1850
Z:Public Domain
%%score 1 2
L:1/8
M:3/2
K:Bb
V:1 treble 
V:2 bass 
V:1
 x12 |: [B,G]2 [CA]2 | [DB]4 [DB]4 [Ec]2 [DB]2 | [DA]4 [DA]4 [DB]2 [DA]2 | %4
 [B,G]4 [EA]4 [DG]2 [D^F]2 | [DG]8 :| [DB]2 [Ec]2 | [Fd]4 [Fd]4 [Ge]2 [Fd]2 | %8
 [Fc]4 [Fc]4 [Fd]2 [Fc]2 | [DB]4 [EB]4 [Ec]2 [DB]2 | [DA]8 [DG]2 [D^F]2 | %11
 [DG]4 [DB]4 [DA]2 [B,G]2 | [DA]4 [DA]4 [DB]2 [DA]2 | [B,G]4 [EA]4 [DG]2 [D^F]2 | [B,G]8 |] %15
V:2
 x12 |: [G,,D,]2 [G,,D,]2 | [G,,G,]4 [G,,G,]4 [C,G,]2 [G,,G,]2 | [D,^F,]4 [D,F,]4 G,2 [D,F,]2 | %4
 [E,G,]4 [C,C]4 [D,B,]2 [D,A,]2 | [G,B,]8 :| [B,,F,]2 [B,,F,]2 | %7
 [B,,B,]4 [B,,B,]4 [E,B,]2 [B,,B,]2 | [F,A,]4 [F,A,]4 [B,,B,]2 [F,A,]2 | %9
 G,4 [E,G,]4 [C,G,]2 [G,,G,]2 | [D,^F,]8 [G,B,]2 [D,A,]2 | [G,B,]4 [G,,G,]4 [D,^F,]2 [E,G,]2 | %12
 [D,^F,]4 [D,F,]4 G,2 [D,F,]2 | [E,G,]4 [C,C]4 [D,B,]2 [D,A,]2 | [G,,G,]8 |] %15

